src/assets/images/YouTube svg.svg

<svg width="32" height="25" viewBox="0 0 32 25" fill="none" xmlns="http://www.w3.org/2000/svg">
<g id="YouTube svg" clip-path="url(#clip0_1275_6292)">
<g id="g10">
<g id="g12">
<path id="path14" d="M31.3313 4.68908C30.9633 3.21386 29.8791 2.05218 28.5022 1.65792C26.0067 0.941406 16 0.941406 16 0.941406C16 0.941406 5.99333 0.941406 3.4978 1.65792C2.12102 2.05218 1.03665 3.21386 0.668678 4.68908C0 7.36282 0 12.9414 0 12.9414C0 12.9414 0 18.5199 0.668678 21.1939C1.03665 22.669 2.12102 23.8306 3.4978 24.2251C5.99333 24.9414 16 24.9414 16 24.9414C16 24.9414 26.0067 24.9414 28.5022 24.2251C29.8791 23.8306 30.9633 22.669 31.3313 21.1939C32 18.5199 32 12.9414 32 12.9414C32 12.9414 32 7.36282 31.3313 4.68908Z" fill="black"/>
<path id="path16" d="M12.7266 18.0059L21.0902 12.9412L12.7266 7.87602V18.0059Z" fill="white"/>
</g>
</g>
</g>
<defs>
<clipPath id="clip0_1275_6292">
<rect width="32" height="24" fill="white" transform="translate(0 0.941406)"/>
</clipPath>
</defs>
</svg>

<svg width="32" height="25" fill="none" xmlns="http://www.w3.org/2000/svg"><g clip-path="url(#a)"><path d="M31.331 4.69c-.368-1.476-1.452-2.638-2.829-3.032C26.007.94 16 .94 16 .94s-10.007 0-12.502.717C2.12 2.052 1.037 3.214.668 4.689 0 7.363 0 12.941 0 12.941s0 5.579.669 8.253c.368 1.475 1.452 2.637 2.829 3.031 2.495.716 12.502.716 12.502.716s10.007 0 12.502-.716c1.377-.394 2.461-1.556 2.83-3.031C32 18.52 32 12.94 32 12.94s0-5.578-.669-8.252Z" fill="#000"/><path d="m12.727 18.006 8.363-5.065-8.363-5.065v10.13Z" fill="#fff"/></g><defs><clipPath id="a"><path fill="#fff" transform="translate(0 .941)" d="M0 0h32v24H0z"/></clipPath></defs></svg>
